X: 25995
T: Mayo Lasses, The
R: reel
M: 4/4
K: Gmajor
GBdg (3ege dB|(3ABA GA BddB|GBdg (3ege dB|(3ABA GA BGGF|
GBdg (3ege dB|(3ABA GA BddB|GBdg (3ege dB|(3ABA GA BG G2|
g2 fg egde|g2 bg eaaf|g2 fg egdB|(3ABA GA BG G2|
g2 fg egde|g2 bg eaaf|(3gag (3fgf (3efe dB|(3ABA GA BG G2|

